src/pos-icons/file-certificate.svg

<svg height="24" viewBox="0 0 24 24" width="24" xmlns="http://www.w3.org/2000/svg"><path d="m14 2h-7a2 2 0 0 0 -2 2v14a2 2 0 0 0 2 2h3v3l2-1 2 1v-3h3a2 2 0 0 0 2-2v-11m-5 8v2l-2-1-2 1v-2l-2-1 2-1v-2l2 1 2-1v2l2 1m-3-6v-4.5l4.5 4.5z"/></svg>

<?xml version="1.0" encoding="UTF-8"?><!DOCTYPE svg PUBLIC "-//W3C//DTD SVG 1.1//EN" "http://www.w3.org/Graphics/SVG/1.1/DTD/svg11.dtd"><svg xmlns="http://www.w3.org/2000/svg" xmlns:xlink="http://www.w3.org/1999/xlink" version="1.1" id="mdi-file-certificate" width="24" height="24" viewBox="0 0 24 24"><path d="M14 2H7A2 2 0 0 0 5 4V18A2 2 0 0 0 7 20H10V23L12 22L14 23V20H17A2 2 0 0 0 19 18V7M14 15V17L12 16L10 17V15L8 14L10 13V11L12 12L14 11V13L16 14M13 8V3.5L17.5 8Z" /></svg>
